; generated by PrusaSlicer 2.9.0 on 2025-06-11 at 22:11:32 UTC


;
;
; 

; external perimeters extrusion width = 0.45mm
; perimeters extrusion width = 0.45mm
; infill extrusion width = 0.45mm
; solid infill extrusion width = 0.45mm
; top infill extrusion width = 0.40mm
; first layer extrusion width = 0.42mm

M73 P0 R1
M73 Q0 S1
M201 X1000 Y1000 Z200 E5000 ; sets maximum accelerations, mm/sec^2
M203 X200 Y200 Z12 E120 ; sets maximum feedrates, mm / sec
M204 S1250 T1250 ; sets acceleration (S) and retract acceleration (R), mm/sec^2
M205 X8.00 Y8.00 Z0.40 E4.50 ; sets the jerk limits, mm/sec
M205 S0 T0 ; sets the minimum extruding and travel feed rate, mm/sec

; printing object 3DBenchy.stl id:0 copy 0
; stop printing object 3DBenchy.stl id:0 copy 0

;TYPE:Custom
M862.3 P "MK3S" ; printer model check
M862.1 P0.4 ; nozzle diameter check
M115 U3.14.1 ; tell printer latest fw version
G90 ; use absolute coordinates
M83 ; extruder relative mode
M104 S215 ; set extruder temp
M140 S60 ; set bed temp
M190 S60 ; wait for bed temp
M109 S215 ; wait for extruder temp
G28 W ; home all without mesh bed level
G80 X105.467 Y96.9009 W38.9905 H16.1982 ; mesh bed levelling

G1 Z0.2 F720
G1 Y-3 F1000 ; go outside print area
G92 E0
G1 X60 E9 F1000 ; intro line
G1 X100 E12.5 F1000 ; intro line
M73 P4 R1
M73 Q4 S1

G92 E0
M221 S95

; Don't change E values below. Excessive value can damage the printer.
M907 E430 ; set extruder motor current
G21 ; set units to millimeters
G90 ; use absolute coordinates
M83 ; use relative distances for extrusion

M900 K0.05 ; Filament gcode LA 1.5
M900 K30 ; Filament gcode LA 1.0




M107
;LAYER_CHANGE
;Z:0.2
;HEIGHT:0.2
G1 E-.8 F2100
M73 P7 R1
M73 Q7 S1
G1 Z.6 F720
; printing object 3DBenchy.stl id:0 copy 0
G1 X132.831 Y109.413 F10800
G1 Z.2 F720
M73 P8 R1
M73 Q9 S1
G1 E.8 F2100
M204 S800
;TYPE:Solid infill
;WIDTH:0.424658
G1 F1200
G1 X132.631 Y109.213 E.00898
G1 X132.462 Y109.215 E.00536
G1 X132.224 Y109.183 E.00762
G1 X131.978 Y109.1 E.00824
G1 X132.547 Y109.669 E.02554
G1 X132.518 Y109.855 E.00598
M73 P9 R1
G1 X132.521 Y110.182 E.01038
G1 X131.238 Y108.9 E.05757
G1 X130.884 Y109.086 E.01269
G1 X133.59 Y111.791 E.12145
G1 X133.119 Y111.86 E.01511
G1 X130.42 Y109.162 E.12113
G1 X130.094 Y109.136 E.01038
M73 Q10 S1
G1 X129.693 Y108.974 E.01373
G1 X132.634 Y111.915 E.13202
G1 X132.129 Y111.951 E.01607
M73 P10 R1
G1 X129.267 Y109.088 E.1285
G1 X129.008 Y109.276 E.01016
G1 X128.942 Y109.303 E.00226
G1 X131.607 Y111.968 E.11963
G1 X131.062 Y111.963 E.0173
M73 Q11 S1
G1 X128.534 Y109.435 E.11348
G1 X128.048 Y109.488 E.01552
G1 X130.502 Y111.943 E.11018
G1 X129.927 Y111.908 E.01829
M73 P11 R1
G1 X127.365 Y109.346 E.11501
G1 X127.124 Y109.239 E.00837
G1 X126.835 Y109.049 E.01098
G1 X126.641 Y108.873 E.00831
G1 X126.353 Y108.469 E.01575
G1 X126.093 Y108.613 E.00943
G1 X129.352 Y111.873 E.14632
G1 X128.778 Y111.838 E.01825
M73 Q12 S1
G1 X125.729 Y108.79 E.13685
G1 X125.282 Y108.882 E.01449
M73 P12 R1
G1 X128.203 Y111.803 E.13112
G1 X127.628 Y111.768 E.01829
G1 X124.835 Y108.975 E.12538
G1 X124.324 Y109.004 E.01625
M73 Q13 S1
G1 X127.053 Y111.733 E.1225
G1 X126.479 Y111.698 E.01825
G1 X123.787 Y109.007 E.12082
M73 P13 R1
G1 X123.253 Y109.012 E.01695
G1 X125.904 Y111.664 E.11902
G1 X125.329 Y111.629 E.01829
G1 X122.732 Y109.031 E.1166
G1 X122.483 Y108.992 E.008
M73 Q14 S1
G1 X122.231 Y108.904 E.00847
G1 X122.089 Y108.827 E.00513
G1 X121.854 Y108.639 E.00955
G1 X121.526 Y108.201 E.01737
G1 X121.492 Y108.103 E.00329
G1 X121.388 Y108.228 E.00516
G1 X124.754 Y111.594 E.1511
G1 X124.18 Y111.559 E.01825
M73 P14 R1
G1 X121.116 Y108.495 E.13754
G1 X120.796 Y108.715 E.01233
G1 X123.605 Y111.524 E.12609
G1 X123.03 Y111.489 E.01829
M73 Q15 S1
G1 X120.442 Y108.901 E.11617
G1 X120.053 Y109.052 E.01325
M73 P15 R1
G1 X122.455 Y111.454 E.10782
G1 X121.881 Y111.419 E.01825
G1 X119.607 Y109.146 E.10206
G1 X119.082 Y109.161 E.01667
G1 X121.306 Y111.384 E.09981
M73 Q16 S1
G1 X120.731 Y111.35 E.01828
G1 X118.324 Y108.943 E.10805
M204 S1000
;WIPE_START
G1 F8640
M73 P16 R1
G1 X120.731 Y111.35 E-.786
G1 X120.792 Y111.354 E-.014
;WIPE_END
G1 Z.6 F720
G1 X117.283 Y104.662 F10800
G1 Z.2 F720
G1 E.8 F2100
M204 S800
G1 F1200
M73 Q17 S1
G1 X116.585 Y103.964 E.03133
G1 X116.174 Y104.093 E.01367
G1 X117.135 Y105.054 E.04314
G1 X117.236 Y105.401 E.01147
G1 X117.442 Y105.686 E.01116
G1 X117.282 Y105.741 E.00537
G1 X115.694 Y104.153 E.07128
G1 X115.696 Y104.695 E.0172
M73 P17 R1
G1 X116.96 Y105.959 E.05674
G1 X116.848 Y106.053 E.00464
G1 X116.701 Y106.24 E.00755
G1 X115.698 Y105.237 E.04502
G1 X115.701 Y105.779 E.0172
G1 X116.518 Y106.597 E.0367
G1 X116.461 Y106.767 E.00569
G1 X116.422 Y107.04 E.00875
G1 X115.703 Y106.322 E.03225
G1 X115.706 Y106.864 E.0172
G1 X116.486 Y107.645 E.03504
G1 X116.664 Y108.094 E.01533
M73 Q18 S1
G1 X116.965 Y108.473 E.01536
G1 X117.205 Y108.674 E.00994
G1 X117.416 Y108.803 E.00785
G1 X117.811 Y108.969 E.0136
G1 X120.156 Y111.315 E.10529
G1 X119.582 Y111.28 E.01825
M73 P18 R1
G1 X115.703 Y107.401 E.17413
G1 X115.621 Y107.859 E.01477
G1 X119.007 Y111.245 E.152
G1 X118.432 Y111.21 E.01829
M73 Q19 S1
G1 X115.466 Y108.244 E.13314
G1 X115.227 Y108.545 E.0122
M73 P19 R1
G1 X117.857 Y111.175 E.11806
G1 X117.283 Y111.14 E.01825
G1 X114.935 Y108.792 E.1054
G1 X114.752 Y108.892 E.00662
G1 X114.558 Y108.955 E.00647
G1 X116.708 Y111.105 E.09651
G1 X116.133 Y111.07 E.01829
M73 Q20 S1
G1 X113.913 Y108.85 E.09965
M204 S1000
;WIPE_START
G1 F8640
M73 P20 R1
G1 X116.133 Y111.07 E-.72493
G1 X116.457 Y111.09 E-.07507
;WIPE_END
G1 Z.6 F720
G1 X112.676 Y104.374 F10800
G1 Z.2 F720
G1 E.8 F2100
M204 S800
G1 F1200
G1 X112.45 Y104.148 E.01015
G1 X112.103 Y104.159 E.01102
G1 X111.888 Y104.126 E.0069
G1 X112.507 Y104.745 E.02779
M73 Q21 S1
G1 X112.509 Y105.286 E.01717
G1 X111.281 Y104.059 E.0551
G1 X111.19 Y104.161 E.00434
G1 X110.979 Y104.296 E.00795
G1 X112.51 Y105.828 E.06875
G1 X112.512 Y106.369 E.01717
M73 P21 R1
G1 X110.603 Y104.46 E.08569
G1 X110.509 Y104.483 E.00307
G1 X110.109 Y104.506 E.01272
G1 X112.513 Y106.911 E.10794
G1 X112.492 Y107.43 E.01649
G1 X111.79 Y106.727 E.03153
G1 X111.771 Y106.604 E.00395
G1 X111.611 Y106.225 E.01306
G1 X111.411 Y105.962 E.01049
M73 Q22 S1
G1 X111.169 Y105.747 E.01028
G1 X110.746 Y105.531 E.01508
G1 X110.526 Y105.463 E.00731
G1 X109.354 Y104.292 E.05259
G1 X108.837 Y104.008 E.01872
G1 X108.699 Y104.077 E.0049
G1 X108.66 Y104.137 E.00227
G1 X109.955 Y105.432 E.05813
G1 X109.772 Y105.45 E.00584
M73 P22 R1
G1 X109.527 Y105.544 E.00833
G1 X108.565 Y104.582 E.04318
G1 X108.53 Y104.929 E.01107
G1 X108.545 Y105.102 E.00551
G1 X109.175 Y105.731 E.02826
G1 X108.96 Y105.92 E.00909
G1 X108.819 Y105.916 E.00448
G1 X108.409 Y105.506 E.0184
M204 S1000
;WIPE_START
G1 F8640
G1 X108.819 Y105.916 E-.13388
G1 X108.96 Y105.92 E-.03257
G1 X109.175 Y105.731 E-.0661
G1 X108.545 Y105.102 E-.20556
G1 X108.53 Y104.929 E-.0401
G1 X108.565 Y104.582 E-.08053
G1 X109.304 Y105.321 E-.24126
;WIPE_END
G1 Z.6 F720
G1 X111.648 Y107.125 F10800
G1 Z.2 F720
M73 Q23 S1
G1 E.8 F2100
M204 S800
G1 F1200
G1 X115.558 Y111.036 E.17554
G1 X114.984 Y111.001 E.01825
M73 P23 R1
G1 X111.65 Y107.667 E.14966
G1 X111.594 Y107.797 E.00449
G1 X111.457 Y108.014 E.00815
G1 X114.409 Y110.966 E.13251
G1 X113.834 Y110.931 E.01829
M73 Q24 S1
G1 X111.214 Y108.311 E.11761
G1 X111.16 Y108.378 E.00273
M73 P24 R1
G1 X110.93 Y108.566 E.00943
G1 X113.259 Y110.896 E.10457
G1 X112.685 Y110.861 E.01825
G1 X110.597 Y108.774 E.09371
G1 X110.333 Y108.921 E.00959
G1 X110.237 Y108.954 E.00322
G1 X112.11 Y110.826 E.08406
G1 X111.535 Y110.791 E.01829
M73 Q25 S1
G1 X109.827 Y109.083 E.07667
G1 X109.461 Y109.153 E.01183
M73 P25 R1
G1 X109.358 Y109.154 E.00327
G1 X110.96 Y110.756 E.07191
G1 X110.386 Y110.722 E.01825
G1 X108.821 Y109.157 E.07025
G1 X108.482 Y109.159 E.01076
G1 X108.226 Y109.102 E.00832
G1 X109.811 Y110.687 E.07115
G1 X109.236 Y110.652 E.01829
G1 X107.443 Y108.859 E.08049
G1 X106.94 Y108.606 E.01787
M73 Q26 S1
G1 X106.757 Y108.479 E.00707
G1 X106.594 Y108.33 E.00701
G1 X106.595 Y108.55 E.00698
G1 X108.661 Y110.617 E.09276
G1 X108.087 Y110.582 E.01825
M73 P26 R1
G1 X106.596 Y109.092 E.06691
G1 X106.598 Y109.633 E.01717
G1 X107.512 Y110.547 E.04103
G1 X107.246 Y110.531 E.00846
G1 X106.988 Y110.482 E.00834
G1 X106.85 Y110.414 E.00488
G1 X106.444 Y110.019 E.01798
M204 S1000
;WIPE_START
G1 F8640
G1 X106.85 Y110.414 E-.13079
G1 X106.988 Y110.482 E-.03552
G1 X107.246 Y110.531 E-.06064
G1 X107.512 Y110.547 E-.06153
G1 X106.598 Y109.633 E-.29846
G1 X106.596 Y109.092 E-.12492
G1 X106.866 Y109.362 E-.08814
;WIPE_END
G1 Z.6 F720
G1 X138.134 Y105.541 F10800
M73 Q27 S1
G1 Z.2 F720
M73 P27 R1
G1 E.8 F2100
M204 S800
;WIDTH:0.495415
G1 F1200
G1 X138.393 Y105.801 E.01381
M204 S1000
;WIPE_START
G1 F8640
M73 P27 R0
G1 X138.134 Y105.541 E-.08474
;WIPE_END
G1 E-.71526 F2100
G1 Z.6 F720
G1 X139.069 Y109.051 F10800
G1 Z.2 F720
M73 Q28 S0
G1 E.8 F2100
M204 S800
;WIDTH:0.447382
G1 F1200
G1 X139.408 Y109.39 E.01612
G1 X139.069 Y109.623 E.01383
G1 X138.626 Y109.18 E.02107
G1 X138.383 Y109.107 E.00853
G1 X138.121 Y108.965 E.01002
G1 X137.73 Y108.579 E.01848
G1 X137.594 Y108.336 E.00937
M73 P28 R0
G1 X137.486 Y108.04 E.0106
G1 X137.449 Y108.003 E.00176
G1 X137.293 Y108.418 E.01491
G1 X138.726 Y109.852 E.06818
G1 X138.365 Y110.063 E.01406
G1 X137.136 Y108.834 E.05845
G1 X136.98 Y109.249 E.01491
G1 X138.005 Y110.274 E.04875
G1 X137.632 Y110.474 E.01423
G1 X136.822 Y109.663 E.03855
G1 X136.643 Y110.057 E.01455
G1 X137.247 Y110.661 E.02873
G1 X136.855 Y110.841 E.01451
M73 Q29 S0
G1 X136.45 Y110.436 E.01926
G1 X136.311 Y110.668 E.0091
G1 X136.214 Y110.772 E.00478
G1 X136.449 Y111.007 E.01118
G1 X136.023 Y111.153 E.01514
G1 X135.818 Y110.948 E.00975
M204 S1000
;WIPE_START
G1 F8640
G1 X136.023 Y111.153 E-.06694
G1 X136.449 Y111.007 E-.10398
G1 X136.214 Y110.772 E-.07674
G1 X136.311 Y110.668 E-.03284
G1 X136.45 Y110.436 E-.06245
G1 X136.855 Y110.841 E-.13225
M73 P29 R0
G1 X137.247 Y110.661 E-.0996
G1 X136.643 Y110.057 E-.19723
G1 X136.693 Y109.947 E-.02797
;WIPE_END
G1 Z.6 F720
G1 X142.642 Y104.572 F10800
G1 Z.2 F720
G1 E.8 F2100
M204 S800
;WIDTH:0.46436
G1 F1200
G1 X143.252 Y105.182 E.03023
G1 X143.025 Y105.551 E.01518
G1 X142.593 Y105.119 E.02141
G1 X142.358 Y105.48 E.01509
M73 Q30 S0
G1 X142.793 Y105.915 E.02156
G1 X142.553 Y106.27 E.01502
G1 X141.986 Y105.704 E.02807
M204 S1000
;WIPE_START
G1 F8640
G1 X142.553 Y106.27 E-.18499
G1 X142.793 Y105.915 E-.09895
G1 X142.358 Y105.48 E-.14205
G1 X142.593 Y105.119 E-.09946
M73 P30 R0
G1 X143.025 Y105.551 E-.14107
G1 X143.252 Y105.182 E-.10003
G1 X143.15 Y105.08 E-.03345
;WIPE_END
G1 Z.6 F720
G1 X139.578 Y100.517 F10800
G1 Z.2 F720
G1 E.8 F2100
M204 S800
;WIDTH:0.423478
G1 F1200
G1 X141.07 Y102.009 E.06677
G1 X141.396 Y102.359 E.01514
G1 X140.883 Y102.36 E.01623
M73 Q31 S0
G1 X138.583 Y100.06 E.10293
G1 X137.676 Y99.546 E.03299
G1 X137.399 Y99.415 E.0097
M73 P31 R0
G1 X140.345 Y102.36 E.13181
G1 X139.807 Y102.36 E.01702
G1 X136.435 Y98.989 E.15088
G1 X135.598 Y98.69 E.02812
G1 X139.273 Y102.365 E.16446
G1 X138.797 Y102.427 E.01519
M73 P32 R0
M73 Q32 S0
G1 X134.836 Y98.466 E.17726
G1 X134.139 Y98.307 E.02262
G1 X138.408 Y102.577 E.19106
G1 X138.226 Y102.666 E.00641
M73 Q33 S0
G1 X138.117 Y102.747 E.0043
G1 X138.014 Y102.651 E.00446
G1 X137.864 Y102.57 E.00539
G1 X133.483 Y98.189 E.19605
G1 X132.862 Y98.107 E.01982
M73 P33 R0
G1 X137.14 Y102.385 E.19144
G1 X136.698 Y102.481 E.01431
G1 X132.276 Y98.059 E.19789
M73 Q34 S0
G1 X131.716 Y98.037 E.01773
M73 P34 R0
G1 X136.351 Y102.672 E.20742
G1 X136.253 Y102.745 E.00387
G1 X136.071 Y102.93 E.00821
G1 X131.178 Y98.037 E.21897
G1 X130.653 Y98.05 E.01662
M73 P35 R0
M73 Q35 S0
G1 X135.098 Y102.495 E.19892
G1 X134.795 Y102.392 E.01013
G1 X134.434 Y102.37 E.01144
G1 X130.142 Y98.077 E.19209
G1 X129.635 Y98.108 E.01607
M73 Q36 S0
G1 X133.979 Y102.452 E.1944
G1 X133.828 Y102.498 E.00499
M73 P36 R0
G1 X133.607 Y102.619 E.00797
G1 X129.127 Y98.139 E.20048
G1 X128.62 Y98.17 E.01607
G1 X132.856 Y102.406 E.18956
M73 Q37 S0
G1 X132.796 Y102.39 E.00196
M73 P37 R0
G1 X132.309 Y102.397 E.01541
G1 X128.113 Y98.201 E.18777
G1 X127.605 Y98.232 E.0161
G1 X131.92 Y102.546 E.19308
G1 X131.839 Y102.583 E.00282
M73 Q38 S0
G1 X131.607 Y102.772 E.00947
G1 X127.098 Y98.262 E.2018
M73 P38 R0
G1 X126.591 Y98.293 E.01607
G1 X130.685 Y102.388 E.18323
G1 X130.427 Y102.365 E.0082
M73 Q39 S0
G1 X130.177 Y102.418 E.00809
G1 X126.083 Y98.324 E.18321
G1 X125.576 Y98.355 E.01607
M73 P39 R0
G1 X129.749 Y102.528 E.18674
G1 X129.575 Y102.63 E.00638
G1 X129.432 Y102.749 E.00589
G1 X125.069 Y98.386 E.19525
G1 X124.561 Y98.417 E.0161
M73 P40 R0
M73 Q40 S0
G1 X129.16 Y103.015 E.20579
G1 X128.977 Y103.371 E.01267
G1 X124.054 Y98.447 E.22033
G1 X123.546 Y98.478 E.0161
M73 Q41 S0
G1 X128.9 Y103.832 E.2396
G1 X128.896 Y104.133 E.00953
M73 P41 R0
G1 X129.004 Y104.474 E.01132
G1 X127.83 Y103.3 E.05254
G1 X127.957 Y103.712 E.01364
G1 X128.002 Y104.011 E.00957
G1 X129.542 Y105.551 E.06892
G1 X129.651 Y105.747 E.0071
M73 Q42 S0
G1 X129.577 Y105.881 E.00484
G1 X129.501 Y105.786 E.00385
G1 X129.254 Y105.596 E.00986
G1 X128.855 Y105.401 E.01405
G1 X128.071 Y104.618 E.03506
G1 X128.081 Y104.967 E.01105
G1 X128.061 Y105.146 E.0057
G1 X128.377 Y105.462 E.01414
M204 S1000
;WIPE_START
G1 F8640
M73 P42 R0
G1 X128.061 Y105.146 E-.10319
G1 X128.081 Y104.967 E-.04159
G1 X128.071 Y104.618 E-.08062
G1 X128.855 Y105.401 E-.25585
G1 X129.254 Y105.596 E-.10254
G1 X129.501 Y105.786 E-.07195
G1 X129.577 Y105.881 E-.02809
G1 X129.651 Y105.747 E-.03535
G1 X129.542 Y105.551 E-.05178
G1 X129.453 Y105.462 E-.02904
;WIPE_END
G1 Z.6 F720
G1 X125.891 Y101.361 F10800
G1 Z.2 F720
G1 E.8 F2100
M204 S800
G1 F1200
G1 X123.039 Y98.509 E.12763
G1 X122.532 Y98.54 E.01607
M73 Q43 S0
G1 X124.973 Y100.981 E.10924
G1 X124.706 Y100.944 E.00853
M73 P43 R0
G1 X124.39 Y100.937 E.01
G1 X122.024 Y98.571 E.10588
G1 X121.517 Y98.602 E.01607
G1 X123.84 Y100.925 E.10396
G1 X123.29 Y100.913 E.01741
G1 X121.01 Y98.633 E.10203
G1 X120.502 Y98.663 E.0161
M73 Q44 S0
G1 X122.779 Y100.94 E.1019
G1 X122.56 Y100.963 E.00697
M73 P44 R0
G1 X122.347 Y101.046 E.00723
G1 X119.995 Y98.694 E.10525
G1 X119.488 Y98.725 E.01607
G1 X121.98 Y101.217 E.11152
G1 X121.687 Y101.462 E.01209
G1 X118.98 Y98.756 E.12112
G1 X118.473 Y98.787 E.01607
M73 Q45 S0
G1 X120.923 Y101.237 E.10964
G1 X120.454 Y100.985 E.01685
M73 P45 R0
G1 X120.235 Y100.904 E.00739
G1 X120.008 Y100.86 E.00732
G1 X117.966 Y98.818 E.09138
G1 X117.458 Y98.848 E.0161
G1 X119.368 Y100.758 E.08547
G1 X118.998 Y100.746 E.01171
G1 X118.838 Y100.766 E.0051
G1 X116.951 Y98.879 E.08444
G1 X116.444 Y98.91 E.01607
M73 Q46 S0
G1 X118.36 Y100.827 E.08576
G1 X118.165 Y100.851 E.00622
M73 P46 R0
G1 X117.933 Y100.937 E.00783
G1 X115.936 Y98.941 E.08934
G1 X115.429 Y98.972 E.01607
G1 X117.542 Y101.085 E.09456
G1 X117.229 Y101.31 E.0122
G1 X114.921 Y99.003 E.10326
G1 X114.414 Y99.033 E.01607
G1 X116.336 Y100.955 E.08601
G1 X116.206 Y100.931 E.00418
M73 Q47 S0
G1 X115.773 Y100.931 E.0137
G1 X113.907 Y99.064 E.08353
M73 P47 R0
G1 X113.399 Y99.095 E.0161
G1 X115.235 Y100.93 E.08214
G1 X114.696 Y100.93 E.01706
G1 X112.892 Y99.126 E.08073
G1 X112.385 Y99.157 E.01607
G1 X114.158 Y100.93 E.07934
G1 X113.619 Y100.929 E.01706
G1 X111.877 Y99.188 E.07793
M73 Q48 S0
G1 X111.37 Y99.218 E.01607
G1 X113.08 Y100.929 E.07655
M73 P48 R0
G1 X112.525 Y100.912 E.01757
G1 X110.863 Y99.249 E.0744
G1 X110.355 Y99.28 E.0161
G1 X111.989 Y100.913 E.0731
G1 X111.744 Y100.958 E.00788
G1 X111.566 Y101.029 E.00606
G1 X109.848 Y99.311 E.07688
G1 X109.341 Y99.342 E.01607
G1 X111.231 Y101.232 E.08458
G1 X111.182 Y101.269 E.00194
M73 Q49 S0
G1 X111.034 Y101.459 E.00762
G1 X110.978 Y101.401 E.00255
M73 P49 R0
G1 X110.627 Y101.167 E.01335
G1 X108.833 Y99.373 E.08028
G1 X108.326 Y99.403 E.01607
G1 X109.756 Y100.834 E.06402
G1 X109.158 Y100.774 E.01902
G1 X107.819 Y99.434 E.05994
G1 X107.311 Y99.465 E.0161
G1 X108.622 Y100.776 E.05867
G1 X108.136 Y100.828 E.01547
G1 X106.887 Y99.58 E.05587
G1 X106.826 Y99.608 E.00212
G1 X106.749 Y99.681 E.00336
M73 Q50 S0
G1 X106.666 Y99.822 E.00518
G1 X106.653 Y99.883 E.00197
