; generated by PrusaSlicer 2.9.2 on 2025-06-12 at 06:57:25 UTC


;

; 

; external perimeters extrusion width = 0.45mm
; perimeters extrusion width = 0.45mm
; infill extrusion width = 0.45mm
; solid infill extrusion width = 0.45mm
; top infill extrusion width = 0.42mm
; first layer extrusion width = 0.60mm

M73 P0 R5
M73 Q0 S6
M201 X10000 Y10000 Z400 E5000 ; sets maximum accelerations, mm/sec^2
M203 X350 Y350 Z12 E100 ; sets maximum feedrates, mm / sec
M204 P7000 R2500 T7000 ; sets acceleration (P, T) and retract acceleration (R), mm/sec^2
M205 X10.00 Y10.00 Z2.00 E10.00 ; sets the jerk limits, mm/sec
M205 S0 T0 ; sets the minimum extruding and travel feed rate, mm/sec

M486 S0
M486 Alogo.stl
M486 S-1

;TYPE:Custom
M17 ; enable steppers
M862.1 P0.4 A0 F1 ; nozzle check
M862.3 P "COREONE" ; printer model check
M862.5 P2 ; g-code level check
M862.6 P"Input shaper" ; FW feature check
M115 U6.3.3+10442

M555 X100 Y81 W50 H54

G90 ; use absolute coordinates
M83 ; extruder relative mode


M140 S115 ; set bed temp for chamber heating


M109 R250 ; wait for temp

M84 E ; turn off E motor

G28 ; home all without mesh bed level


; Min chamber temp section
M104 S130 ; set idle temp
G1 Z10 F720 ; set bed position
G1 X242 Y-9 F4800 ; set print head position
M191 S40 ; wait for minimal chamber temp
M141 S0 ; set nominal chamber temp
M107
M140 S110 ; set bed temp



G0 Z40 F10000
M73 P1 R5
M73 Q1 S5
M104 T0 S130
M190 R110 ; wait for bed temp
M107

G29 G ; absorb heat

M109 R250 ; wait for MBL temp

M302 S155 ; lower cold extrusion limit to 155C


G1 E-2 F2400 ; retraction
M73 P2 R5


M84 E ; turn off E motor

G29 P9 X208 Y-2.5 W32 H4

;
; MBL
;
M84 E ; turn off E motor
G29 P1 ; invalidate mbl & probe print area
G29 P1 X150 Y0 W100 H20 C ; probe near purge place
G29 P3.2 ; interpolate mbl probes
G29 P3.13 ; extrapolate mbl outside probe area
G29 A ; activate mbl

; prepare for purge
M104 S275
G0 X249 Y-2.5 Z15 F4800 ; move away and ready for the purge
M109 S275

G92 E0
M569 S0 E ; set spreadcycle mode for extruder

;
; Extrude purge line
;
G92 E0 ; reset extruder position
G1 E2 F2400 ; deretraction after the initial one
M73 Q2 S5
G0 E5 X235 Z0.2 F500 ; purge
G0 X225 E4 F500 ; purge
M73 P3 R5
M73 Q3 S5
G0 X215 E4 F650 ; purge
G0 X205 E4 F800 ; purge
M73 P4 R5
G0 X202 Z0.05 F8000 ; wipe, move close to the bed
G0 X199 Z0.2 F8000 ; wipe, move quickly away from the bed

G92 E0
M221 S100 ; set flow to 100%
G21 ; set units to millimeters
G90 ; use absolute coordinates
M83 ; use relative distances for extrusion
M900 K0.07 ; Filament gcode


M572 S0.05 ; Filament gcode


M142 S45 ; set heatbreak target temp
M107
;LAYER_CHANGE
;Z:0.2
;HEIGHT:0.2
G1 E-.7 F2700
G1 Z1.7 F720
M486 S0
G1 X115.996 Y106.735 F21000
G1 Z.2 F720
M73 Q4 S5
G1 E.7 F1500
M204 P500
;TYPE:Solid infill
;WIDTH:0.6
G1 F6000
G1 X115.72 Y106.459 E.01808
G1 X116.114 Y106.065 E.02581
G1 X116.493 Y106.443 E.02479
M204 P3000
M204 T7000
G1 X116.569 Y106.398 F21000
M204 P500
G1 F6000
G1 X117.296 Y105.671 E.04762
G1 X116.902 Y105.277 E.02581
G1 X116.508 Y105.671 E.02581
G1 X116.114 Y105.277 E.02581
G1 X116.508 Y104.883 E.02581
G1 X116.114 Y104.489 E.02581
G1 X115.495 Y105.108 E.04055
M204 P3000
G1 X115.502 Y105.452 F21000
M204 P500
G1 F6000
G1 X115.72 Y105.671 E.01431
G1 X115.51 Y105.882 E.01379
M204 P3000
G1 E-.7 F2700
G1 X115.481 Y104.335 Z.227 F21000
G1 Z.2 F720
G1 E.7 F1500
M204 P500
G1 F6000
G1 X115.72 Y104.095 E.01569
G1 X115.71 Y104.085 E.00066
M204 P3000
G1 E-.7 F2700
G1 X121.27 Y100.979 Z.311 F21000
G1 Z.2 F720
G1 E.7 F1500
M204 P500
G1 F6000
G1 X121.629 Y101.338 E.02352
G1 X122.811 Y100.156 E.07743
G1 X122.786 Y100.132 E.00161
M204 P3000
G1 X123.802 Y100.359 F21000
M204 P500
G1 F6000
G1 X123.599 Y100.156 E.0133
G1 X122.811 Y100.944 E.05162
G1 X123.205 Y101.338 E.02581
G1 X123.599 Y100.944 E.02581
G1 X123.806 Y101.151 E.01356
M204 P3000
G1 X123.808 Y101.522 F21000
M204 P500
G1 F6000
G1 X123.599 Y101.732 E.01372
G1 X123.81 Y101.943 E.01382
M204 P3000
G1 X123.509 Y102.43 F21000
M204 P500
G1 F6000
G1 X123.205 Y102.126 E.01991
G1 X122.811 Y102.52 E.02581
G1 X122.417 Y102.126 E.02581
G1 X122.811 Y101.732 E.02581
G1 X122.417 Y101.338 E.02581
G1 X121.629 Y102.126 E.05162
M73 P5 R5
G1 X122.023 Y102.52 E.02581
G1 X121.629 Y102.914 E.02581
G1 X120.841 Y102.126 E.05162
G1 X121.235 Y101.732 E.02581
G1 X120.841 Y101.338 E.02581
G1 X120.447 Y101.732 E.02581
G1 X120.259 Y101.543 E.01235
M204 P3000
G1 X119.248 Y102.108 F21000
M204 P500
G1 F6000
G1 X119.266 Y102.126 E.00118
G1 X119.328 Y102.064 E.00406
M204 P3000
G1 X119.754 Y101.826 F21000
M204 P500
G1 F6000
G1 X120.447 Y102.52 E.04543
G1 X120.054 Y102.914 E.02578
G1 X119.66 Y102.52 E.02581
G1 X119.266 Y102.914 E.02581
G1 X119.66 Y103.307 E.02578
G1 X119.266 Y103.701 E.02581
G1 X118.478 Y102.914 E.05159
G1 X118.872 Y102.52 E.02581
G1 X118.743 Y102.39 E.00848
M204 P3000
G1 X117.732 Y102.955 F21000
M204 P500
G1 F6000
G1 X118.084 Y103.307 E.02306
G1 X117.69 Y103.701 E.02581
G1 X117.296 Y103.307 E.02581
G1 X116.508 Y104.095 E.05162
G1 X116.902 Y104.489 E.02581
G1 X117.296 Y104.095 E.02581
G1 X117.69 Y104.489 E.02581
G1 X117.296 Y104.883 E.02581
G1 X117.69 Y105.277 E.02581
G1 X118.478 Y104.489 E.05162
G1 X118.084 Y104.095 E.02581
G1 X118.478 Y103.701 E.02581
G1 X119.47 Y104.694 E.06502
M204 P3000
G1 X118.974 Y104.985 F21000
M204 P500
G1 F6000
G1 X118.872 Y104.883 E.00668
G1 X118.478 Y105.277 E.02581
M204 P3000
G1 E-.7 F2700
G1 X119.967 Y104.402 Z.23 F21000
G1 Z.2 F720
M73 Q5 S5
G1 E.7 F1500
M204 P500
G1 F6000
G1 X119.66 Y104.095 E.02011
G1 X120.054 Y103.701 E.02581
G1 X120.447 Y104.095 E.02578
G1 X120.841 Y103.701 E.02581
G1 X120.447 Y103.307 E.02581
G1 X120.841 Y102.914 E.02578
G1 X121.456 Y103.528 E.04025
M204 P3000
G1 X122.297 Y103.034 F21000
M204 P500
G1 F6000
G1 X122.417 Y102.914 E.00786
G1 X122.448 Y102.945 E.00203
M204 P3000
G1 E-.7 F2700
G1 X116.273 Y94.081 Z.389 F21000
G1 Z.2 F720
G1 E.7 F1500
M204 P500
G1 F6000
G1 X116.042 Y93.849 E.01517
G1 X116.435 Y93.456 E.02574
G1 X116.042 Y93.062 E.02578
G1 X115.254 Y93.849 E.05159
G1 X115.648 Y94.243 E.02581
G1 X115.254 Y94.637 E.02581
G1 X114.072 Y93.456 E.0774
G1 X114.466 Y93.062 E.02581
G1 X114.86 Y93.456 E.02581
G1 X115.648 Y92.668 E.05162
G1 X115.254 Y92.274 E.02581
G1 X114.86 Y92.668 E.02581
G1 X114.466 Y92.274 E.02581
G1 X114.86 Y91.88 E.02581
G1 X114.466 Y91.486 E.02581
G1 X113.678 Y92.274 E.05162
G1 X114.072 Y92.668 E.02581
G1 X113.678 Y93.062 E.02581
G1 X113.284 Y92.668 E.02581
G1 X112.496 Y93.456 E.05162
G1 X112.89 Y93.849 E.02578
G1 X113.284 Y93.456 E.02578
G1 X114.072 Y94.243 E.05159
G1 X113.678 Y94.637 E.02581
G1 X113.284 Y94.243 E.02581
G1 X112.89 Y94.637 E.02581
G1 X113.284 Y95.031 E.02581
G1 X112.89 Y95.425 E.02581
G1 X112.102 Y94.637 E.05162
G1 X112.496 Y94.243 E.02581
G1 X112.102 Y93.849 E.02581
G1 X111.315 Y94.637 E.05159
G1 X111.708 Y95.031 E.02578
G1 X111.315 Y95.425 E.02578
G1 X110.921 Y95.031 E.02581
G1 X110.133 Y95.819 E.05162
M73 P5 R4
G1 X110.527 Y96.213 E.02581
G1 X110.921 Y95.819 E.02581
G1 X111.315 Y96.213 E.02581
G1 X110.921 Y96.607 E.02581
G1 X111.279 Y96.965 E.02345
M73 P6 R4
M204 P3000
G1 X111.448 Y96.867 F21000
M204 P500
G1 F6000
G1 X112.102 Y96.213 E.04284
G1 X111.708 Y95.819 E.02581
G1 X112.102 Y95.425 E.02581
G1 X112.777 Y96.1 E.04422
M204 P3000
G1 X113.313 Y95.79 F21000
M204 P500
G1 F6000
G1 X113.678 Y95.425 E.02391
G1 X113.776 Y95.523 E.00642
M204 P3000
G1 X114.275 Y95.235 F21000
M204 P500
G1 F6000
G1 X114.072 Y95.031 E.01333
G1 X114.466 Y94.637 E.02581
G1 X114.775 Y94.946 E.02024
M204 P3000
G1 E-.7 F2700
G1 X106.257 Y95.882 Z.35 F21000
G1 Z.2 F720
G1 E.7 F1500
M204 P500
G1 F6000
G1 X106.588 Y96.213 E.02168
G1 X106.194 Y96.607 E.02581
G1 X106.588 Y97.001 E.02581
G1 X106.981 Y96.607 E.02578
G1 X107.769 Y97.395 E.05162
G1 X107.375 Y97.789 E.02581
G1 X106.981 Y97.395 E.02581
G1 X106.588 Y97.789 E.02578
G1 X106.981 Y98.183 E.02578
G1 X106.588 Y98.576 E.02574
G1 X105.8 Y97.789 E.05159
G1 X106.194 Y97.395 E.02581
G1 X105.8 Y97.001 E.02581
G1 X104.892 Y97.909 E.05948
M204 P3000
G1 X104.685 Y98.249 F21000
M204 P500
G1 F6000
G1 X105.012 Y98.576 E.02142
G1 X105.406 Y98.183 E.02578
G1 X106.194 Y98.97 E.05159
G1 X105.8 Y99.364 E.02581
M73 Q6 S5
G1 X105.406 Y98.97 E.02581
G1 X105.012 Y99.364 E.02581
G1 X105.406 Y99.758 E.02581
G1 X105.012 Y100.152 E.02581
G1 X104.224 Y99.364 E.05162
G1 X104.618 Y98.97 E.02581
G1 X104.405 Y98.758 E.01392
M204 P3000
G1 X103.87 Y99.798 F21000
M204 P500
G1 F6000
G1 X104.618 Y100.546 E.049
G1 X104.224 Y100.94 E.02581
G1 X103.83 Y100.546 E.02581
G1 X103.436 Y100.94 E.02581
G1 X103.83 Y101.334 E.02581
G1 X103.436 Y101.728 E.02581
G1 X103.152 Y101.444 E.0186
M204 P3000
G1 X102.933 Y102.012 F21000
M204 P500
G1 F6000
G1 X103.042 Y102.122 E.00717
G1 X102.821 Y102.343 E.01448
M204 P3000
G1 E-.7 F2700
G1 X101.813 Y113.593 Z.397 F21000
G1 Z.2 F720
G1 E.7 F1500
M204 P500
G1 F6000
G1 X101.861 Y113.545 E.00314
G1 X102.648 Y114.333 E.05159
G1 X102.254 Y114.727 E.02581
G1 X102.648 Y115.121 E.02581
G1 X103.436 Y114.333 E.05162
G1 X103.042 Y113.939 E.02581
G1 X103.436 Y113.545 E.02581
G1 X103.83 Y113.939 E.02581
G1 X104.618 Y113.151 E.05162
G1 X104.224 Y112.757 E.02581
G1 X103.83 Y113.151 E.02581
G1 X103.436 Y112.757 E.02581
G1 X103.83 Y112.363 E.02581
G1 X103.436 Y111.97 E.02578
G1 X102.648 Y112.757 E.05159
G1 X103.042 Y113.151 E.02581
G1 X102.648 Y113.545 E.02581
G1 X101.678 Y112.575 E.06354
M204 P3000
G1 X101.636 Y112.194 F21000
M204 P500
G1 F6000
G1 X101.861 Y111.97 E.01471
G1 X102.254 Y112.363 E.02574
G1 X103.042 Y111.576 E.05159
G1 X102.648 Y111.182 E.02581
G1 X102.254 Y111.576 E.02581
G1 X101.861 Y111.182 E.02578
G1 X102.254 Y110.788 E.02578
G1 X101.861 Y110.394 E.02578
G1 X101.546 Y110.708 E.0206
M204 P3000
G1 X101.532 Y109.934 F21000
M204 P500
G1 F6000
G1 X101.861 Y109.606 E.02152
G1 X101.546 Y109.292 E.0206
M204 P3000
G1 X101.55 Y109.129 F21000
M204 P500
G1 F6000
G1 X101.861 Y108.818 E.02037
G1 X102.254 Y109.212 E.02578
G1 X103.042 Y108.424 E.05162
G1 X102.648 Y108.03 E.02581
G1 X102.254 Y108.424 E.02581
G1 X101.861 Y108.03 E.02578
G1 X102.254 Y107.637 E.02574
G1 X101.861 Y107.243 E.02578
G1 X101.678 Y107.425 E.01196
M204 P3000
G1 X101.796 Y106.519 F21000
M73 P7 R4
M204 P500
G1 F6000
G1 X102.254 Y106.061 E.03
G1 X101.926 Y105.732 E.02152
M204 P3000
G1 X102.206 Y104.436 F21000
M204 P500
G1 F6000
G1 X102.648 Y104.879 E.02899
G1 X102.254 Y105.273 E.02581
G1 X102.648 Y105.667 E.02581
G1 X103.042 Y105.273 E.02581
G1 X103.83 Y106.061 E.05162
G1 X103.436 Y106.455 E.02581
G1 X103.042 Y106.061 E.02581
G1 X102.254 Y106.849 E.05162
G1 X102.648 Y107.243 E.02581
G1 X103.042 Y106.849 E.02581
G1 X103.436 Y107.243 E.02581
G1 X103.042 Y107.637 E.02581
G1 X103.436 Y108.03 E.02578
G1 X104.224 Y107.243 E.05159
G1 X103.83 Y106.849 E.02581
G1 X104.224 Y106.455 E.02581
G1 X105.012 Y107.243 E.05162
G1 X104.618 Y107.637 E.02581
G1 X105.012 Y108.03 E.02578
G1 X105.406 Y107.637 E.02578
G1 X106.194 Y108.424 E.05159
G1 X105.8 Y108.818 E.02581
G1 X105.406 Y108.424 E.02581
G1 X105.012 Y108.818 E.02581
G1 X105.406 Y109.212 E.02581
G1 X105.012 Y109.606 E.02581
G1 X104.224 Y108.818 E.05162
G1 X104.618 Y108.424 E.02581
M73 Q7 S5
G1 X104.224 Y108.03 E.02581
G1 X103.436 Y108.818 E.05162
G1 X103.83 Y109.212 E.02581
G1 X103.436 Y109.606 E.02581
G1 X103.042 Y109.212 E.02581
G1 X102.254 Y110 E.05162
G1 X102.648 Y110.394 E.02581
G1 X103.042 Y110 E.02581
G1 X103.436 Y110.394 E.02581
G1 X103.042 Y110.788 E.02581
G1 X103.436 Y111.182 E.02581
G1 X104.224 Y110.394 E.05162
G1 X103.83 Y110 E.02581
G1 X104.224 Y109.606 E.02581
G1 X105.406 Y110.788 E.07743
G1 X105.012 Y111.182 E.02581
G1 X104.618 Y110.788 E.02581
G1 X103.83 Y111.576 E.05162
G1 X104.224 Y111.97 E.02581
G1 X104.618 Y111.576 E.02581
G1 X105.012 Y111.97 E.02581
G1 X104.618 Y112.363 E.02578
G1 X105.012 Y112.757 E.02581
G1 X105.8 Y111.97 E.05159
G1 X105.406 Y111.576 E.02581
G1 X105.8 Y111.182 E.02581
G1 X106.194 Y111.576 E.02581
G1 X106.981 Y110.788 E.05159
G1 X106.588 Y110.394 E.02578
G1 X106.194 Y110.788 E.02581
G1 X105.406 Y110 E.05162
G1 X105.8 Y109.606 E.02581
G1 X106.194 Y110 E.02581
G1 X106.588 Y109.606 E.02581
G1 X106.194 Y109.212 E.02581
G1 X106.588 Y108.818 E.02581
G1 X107.375 Y109.606 E.05159
G1 X106.981 Y110 E.02581
G1 X107.375 Y110.394 E.02581
G1 X107.575 Y110.194 E.0131
M204 P3000
G1 X107.575 Y110.982 F21000
M204 P500
G1 F6000
G1 X107.375 Y111.182 E.0131
G1 X107.575 Y111.382 E.0131
M204 P3000
G1 X107.575 Y111.77 F21000
M204 P500
G1 F6000
G1 X107.375 Y111.97 E.0131
G1 X106.981 Y111.576 E.02581
G1 X106.194 Y112.363 E.05156
G1 X106.588 Y112.757 E.02581
G1 X106.981 Y112.363 E.02578
G1 X107.575 Y112.957 E.03891
M204 P3000
G1 X107.575 Y113.345 F21000
M204 P500
G1 F6000
G1 X107.375 Y113.545 E.0131
G1 X106.981 Y113.151 E.02581
G1 X106.588 Y113.545 E.02578
G1 X106.981 Y113.939 E.02578
G1 X106.588 Y114.333 E.02578
G1 X105.8 Y113.545 E.05162
G1 X106.194 Y113.151 E.02581
G1 X105.8 Y112.757 E.02581
G1 X105.012 Y113.545 E.05162
G1 X105.406 Y113.939 E.02581
G1 X105.012 Y114.333 E.02581
M73 P8 R4
G1 X104.618 Y113.939 E.02581
G1 X103.83 Y114.727 E.05162
G1 X104.224 Y115.121 E.02581
G1 X104.618 Y114.727 E.02581
G1 X105.012 Y115.121 E.02581
G1 X104.618 Y115.515 E.02581
G1 X105.012 Y115.909 E.02581
G1 X105.8 Y115.121 E.05162
G1 X105.406 Y114.727 E.02581
G1 X105.8 Y114.333 E.02581
G1 X106.588 Y115.121 E.05162
G1 X106.194 Y115.515 E.02581
G1 X106.588 Y115.909 E.02581
G1 X106.981 Y115.515 E.02578
G1 X107.576 Y116.109 E.03894
M204 P3000
G1 X107.576 Y116.496 F21000
M204 P500
G1 F6000
G1 X107.375 Y116.697 E.01317
G1 X106.981 Y116.303 E.02581
G1 X106.588 Y116.697 E.02578
G1 X106.981 Y117.09 E.02574
G1 X106.588 Y117.484 E.02578
G1 X105.8 Y116.697 E.05159
G1 X106.194 Y116.303 E.02581
G1 X105.8 Y115.909 E.02581
G1 X104.618 Y117.09 E.0774
G1 X105.012 Y117.484 E.02581
G1 X105.406 Y117.09 E.02581
G1 X106.194 Y117.878 E.05162
G1 X105.8 Y118.272 E.02581
M73 Q8 S5
G1 X105.406 Y117.878 E.02581
G1 X105.012 Y118.272 E.02581
G1 X105.406 Y118.666 E.02581
G1 X105.012 Y119.06 E.02581
G1 X104.224 Y118.272 E.05162
G1 X104.618 Y117.878 E.02581
G1 X104.224 Y117.484 E.02581
G1 X103.83 Y117.878 E.02581
G1 X103.042 Y117.09 E.05162
G1 X103.436 Y116.697 E.02578
G1 X103.83 Y117.09 E.02578
G1 X104.618 Y116.303 E.05159
G1 X104.224 Y115.909 E.02581
G1 X103.83 Y116.303 E.02581
G1 X103.436 Y115.909 E.02581
G1 X103.83 Y115.515 E.02581
G1 X103.436 Y115.121 E.02581
G1 X102.648 Y115.909 E.05162
G1 X103.042 Y116.303 E.02581
G1 X102.648 Y116.697 E.02581
G1 X102.456 Y116.504 E.01261
M204 P3000
G1 X102.206 Y115.564 F21000
M204 P500
G1 F6000
G1 X102.254 Y115.515 E.00318
G1 X102.174 Y115.434 E.00527
M204 P3000
G1 E-.7 F2700
G1 X102.821 Y117.657 Z.24 F21000
G1 Z.2 F720
G1 E.7 F1500
M204 P500
G1 F6000
G1 X103.042 Y117.878 E.01448
G1 X102.933 Y117.988 E.00717
M204 P3000
G1 X103.378 Y119.118 F21000
M204 P500
G1 F6000
G1 X103.436 Y119.06 E.0038
G1 X103.292 Y118.916 E.00943
M204 P3000
G1 X103.152 Y118.556 F21000
M204 P500
G1 F6000
G1 X103.436 Y118.272 E.0186
G1 X104.224 Y119.06 E.05162
G1 X103.83 Y119.454 E.02581
G1 X104.224 Y119.848 E.02581
G1 X104.618 Y119.454 E.02581
G1 X105.406 Y120.242 E.05162
G1 X105.012 Y120.636 E.02581
G1 X104.618 Y120.242 E.02581
G1 X104.13 Y120.73 E.03197
M204 P3000
G1 X104.407 Y121.241 F21000
M204 P500
G1 F6000
G1 X104.618 Y121.03 E.01382
G1 X105.012 Y121.424 E.02581
G1 X104.687 Y121.748 E.02126
M204 P3000
G1 X104.892 Y122.091 F21000
M204 P500
G1 F6000
G1 X105.012 Y122.211 E.00786
G1 X105.8 Y121.424 E.05159
G1 X105.406 Y121.03 E.02581
G1 X105.8 Y120.636 E.02581
G1 X106.588 Y121.424 E.05162
G1 X106.194 Y121.817 E.02578
G1 X106.588 Y122.211 E.02581
G1 X106.981 Y121.817 E.02578
G1 X107.769 Y122.605 E.05162
G1 X107.375 Y122.999 E.02581
G1 X106.981 Y122.605 E.02581
G1 X106.588 Y122.999 E.02578
G1 X106.981 Y123.393 E.02578
G1 X106.588 Y123.787 E.02578
G1 X105.8 Y122.999 E.05162
G1 X106.194 Y122.605 E.02581
G1 X105.8 Y122.211 E.02581
G1 X105.284 Y122.727 E.0338
M204 P3000
G1 E-.7 F2700
G1 X106.71 Y124.697 Z.242 F21000
G1 Z.2 F720
G1 E.7 F1500
M73 P9 R4
M204 P500
G1 F6000
G1 X107.375 Y125.363 E.0436
G1 X107.316 Y125.422 E.00386
M204 P3000
